!!!OTL: Nobis est hodie
**kern
*staff1
=--
*clefC1
*k[]
*met(c)
*M4/4
1g
2g
2g
=-
2d
2d
2f
2f
=-
1g
2g
2a
=-
2b
2b
2f
2g
=-
2a
2b
1a
=-
!!linebreak:original
2b
2a
2g
2f
=-
0g
=-
2.d
4e
2f
2g
=-
2a
2b
1a
=-
2b
2a
2g
2f
=-
0g
=-=
*-
!!title: @{OTL}, @{GTL}, ed. @{ENC}
!!!pag:
!!!GTL: Hymnbook C
!!!EFL: 
!!!YEM: Creative Commons CC/BY/NC/SA 4.0
!!!ENC: Marcin Konik
!!!END: 2015-0m-dd
!!!EED: Marcin Konik
!!!EEV: 
!!!ONB: Encoded in vim by Marcin Konik
!!!CharacterEncoding: utf-8
!!!RDF**kern: l=long note in original notation
!!!RDF**kern: i=editorial accidental
!!muse2ps: z14jc180F
!!!COM: Anonim
!!!CDT: [?]
!!!TXO: Polish
!!!ODT: 
!!!GTL: Hymnbook C
!!!ARL: Opactwo św. Wojciecha, Staniątki 
!!!voices:	1
